svg-icons/octicons/mortar-board.svg

<svg viewBox="0 0 16 16" xmlns="http://www.w3.org/2000/svg">
  <path d="M7.83 9.19l-3.83-1.19s0 1.5 0 2.5 1.8 1.5 4 1.5 4-0.5 4-1.5 0-2.5 0-2.5l-3.83 1.19c-0.11 0.03-0.23 0.03-0.36 0h0.02z m0.28-6.39c-0.06-0.02-0.14-0.02-0.2 0l-7.64 2.38c-0.33 0.11-0.33 0.56 0 0.67l1.73 0.55v1.77c-0.3 0.17-0.5 0.5-0.5 0.86 0 0.19 0.05 0.36 0.14 0.5-0.08 0.14-0.14 0.31-0.14 0.5v2.58c0 0.55 2 0.55 2 0v-2.58c0-0.19-0.05-0.36-0.14-0.5 0.08-0.14 0.14-0.31 0.14-0.5 0-0.38-0.2-0.69-0.5-0.86v-1.45l4.89 1.53c0.06 0.02 0.14 0.02 0.2 0l7.64-2.38c0.33-0.11 0.33-0.56 0-0.67l-7.63-2.39z m-0.09 3.2c-0.55 0-1-0.22-1-0.5s0.45-0.5 1-0.5 1 0.22 1 0.5-0.45 0.5-1 0.5z" />
</svg>

<svg xmlns="http://www.w3.org/2000/svg" viewBox="0 0 16 16"><path d="M7.83 9.19L4 8c-4-8 0 1.5 0 2.5S5.8 12 8 12s4-.5 4-1.5V8L8.17 9.19a.73.73 0 0 1-.36 0h.02zm.28-6.39a.34.34 0 0 0-.2 0L.27 5.18a.35.35 0 0 0 0 .67L2 6.4v1.77c-.3.17-.5.5-.5.86 0 .19.05.36.14.5-.08.14-.14.31-.14.5v2.58c0 .55 2 .55 2 0v-2.58c0-.19-.05-.36-.14-.5.08-.14.14-.31.14-.5 0-.38-.2-.69-.5-.86V6.72l4.89 1.53c.06.02.14.02.2 0l7.64-2.38a.35.35 0 0 0 0-.67L8.1 2.81l.01-.01zM8.02 6c-.55 0-1-.22-1-.5s.45-.5 1-.5 1 .22 1 .5-.45.5-1 .5z"/></svg>
